images/bnb-coin-ver.svg

<svg width="107" height="124" viewBox="0 0 107 124" fill="none" xmlns="http://www.w3.org/2000/svg">
<g clip-path="url(#clip0_565_466)">
<path d="M46.7185 115.689C22.4476 101.249 2.77222 66.6491 2.77222 38.4077C2.77222 10.1663 22.4476 -1.02226 46.7185 13.4174C70.9893 27.857 90.6647 62.4568 90.6647 90.6982C90.6647 118.94 70.9893 130.128 46.7185 115.689Z" fill="white" stroke="#0D0B33" stroke-width="1.72736"/>
<path fill-rule="evenodd" clip-rule="evenodd" d="M30.6856 59.7798L35.9342 66.3061L35.9342 73.3032L35.932 73.3019L35.932 73.2993L30.6856 66.7743L30.6856 59.7798ZM51.6733 92.8832L51.6755 92.8845L51.6755 99.8842L46.4269 100.352L41.1783 93.8237L41.1783 86.824L46.4269 93.3528L51.6733 92.8832ZM25.4392 67.2439L35.9342 80.2977L35.9342 87.2948L30.6856 80.766L25.4392 74.2384L20.1929 67.7135L20.1929 46.7247L25.4392 53.2522L25.4392 67.2439ZM67.4146 77.4867L72.6632 77.0184L72.6632 98.0072L67.4146 98.4729L56.9219 99.412L56.9219 92.4149L67.4146 91.4784L67.4146 77.4867ZM56.9219 78.4233L62.1682 77.9563L62.1682 84.9508L56.9219 85.4204L56.9219 78.4233ZM56.9219 57.4371L62.1683 63.9647L62.1683 70.9592L51.6756 71.8983L51.6755 85.89L46.427 86.3557L41.1784 79.8294L41.1784 65.8378L35.9342 59.3115L30.6856 52.7827L30.6856 45.7882L35.9342 45.3199L46.427 58.375L51.6756 57.9067L56.9219 57.4371ZM46.4269 44.3833L51.6755 50.9095L46.4269 51.3778L41.1783 44.849L46.4269 44.3833ZM56.9219 43.4429L62.1683 49.973L56.9219 50.4426L51.6756 43.915L46.427 37.3836L41.1784 37.8545L35.9342 38.3253L30.6856 31.7965L35.9342 31.3256L46.427 30.3865L51.6756 36.9153L56.9219 43.4429ZM67.4146 56.5005L72.6632 63.0268L72.6632 70.0239L67.4146 70.4922L67.4146 63.4951L62.1682 56.9675L67.4146 56.5005ZM30.6856 38.791L25.4392 39.2606L25.4392 46.2577L20.1929 39.7301L20.1929 32.733L25.4392 32.266L30.6856 38.791Z" fill="black"/>
<path d="M46.7184 13.4175C34.7149 6.27613 23.8353 5.40332 15.9041 9.76172L24.6266 4.80158C41.7887 -4.95776 69.614 11.5965 86.7761 41.7766C103.938 71.9567 103.938 104.334 86.7761 114.093L78.3871 118.864C78.3876 118.858 78.3881 118.852 78.3887 118.847C85.9907 114.177 90.6647 104.463 90.6647 90.6984C90.6647 62.4569 70.9893 27.8571 46.7184 13.4175Z" fill="#79EFBD" stroke="#0D0B33" stroke-width="1.72736"/>
<path d="M90.3828 84.7058L99.3665 79.7229C99.2405 74.9155 98.6939 71.4447 96.8403 63.9672L87.3594 69.2402C88.8817 74.4388 89.9163 79.641 90.3828 84.7058Z" fill="#0D0B33"/>
<path d="M83.2899 57.9465L92.0814 52.8023C82.6841 32.643 75.5033 23.1577 58.7938 10.0142L49.6718 15.2881C63.6968 24.7151 75.9225 40.7276 83.2899 57.9465Z" fill="#0D0B33"/>
</g>
<defs>
<clipPath id="clip0_565_466">
<rect width="107" height="124" fill="white"/>
</clipPath>
</defs>
</svg>

<svg xmlns="http://www.w3.org/2000/svg" width="107" height="124" fill="none"><g clip-path="url(#a)"><path fill="#fff" stroke="#0D0B33" stroke-width="1.727" d="M46.718 115.689c-24.27-14.44-43.946-49.04-43.946-77.281 0-28.242 19.676-39.43 43.947-24.99 24.27 14.439 43.946 49.039 43.946 77.28 0 28.242-19.676 39.43-43.947 24.991Z"/><path fill="#000" fill-rule="evenodd" d="m30.686 59.78 5.248 6.526v6.997l-.002-.001v-.003l-5.246-6.525V59.78Zm20.987 33.103.002.002v7l-5.248.467-5.249-6.528v-7l5.249 6.529 5.246-.47ZM25.44 67.243l10.495 13.055v6.997l-5.248-6.529-5.247-6.528-5.246-6.525V46.725l5.246 6.527v13.992Zm41.976 10.244 5.248-.469v20.99l-5.248.465-10.493.939v-6.997l10.493-.937V77.487Zm-10.493.936 5.246-.467v6.995l-5.246.47v-6.998Zm0-20.986 5.246 6.528v6.994l-10.492.94V85.89l-5.249.466-5.249-6.527V65.838l-5.244-6.526-5.248-6.53v-6.994l5.248-.468 10.493 13.055 5.249-.468 5.246-.47ZM46.427 44.383l5.248 6.526-5.248.469-5.249-6.529 5.249-.466Zm10.495-.94 5.246 6.53-5.246.47-5.246-6.528-5.249-6.531-5.249.47-5.244.471-5.248-6.529 5.248-.47 10.493-.94 5.249 6.53 5.246 6.527ZM67.415 56.5l5.248 6.526v6.997l-5.248.468v-6.997l-5.247-6.527 5.247-.468Zm-36.73-17.71-5.246.47v6.997l-5.246-6.528v-6.997l5.246-.467 5.247 6.525Z" clip-rule="evenodd"/><path fill="#79EFBD" stroke="#0D0B33" stroke-width="1.727" d="M46.718 13.418C34.715 6.276 23.835 5.402 15.904 9.761l8.723-4.96c17.162-9.76 44.987 6.795 62.15 36.975 17.161 30.18 17.161 62.557 0 72.316l-8.39 4.771.002-.017c7.602-4.67 12.276-14.384 12.276-28.149 0-28.241-19.676-62.84-43.947-77.28Z"/><path fill="#0D0B33" d="m90.383 84.706 8.984-4.983c-.127-4.808-.673-8.278-2.527-15.756l-9.48 5.273c1.522 5.199 2.556 10.401 3.023 15.466ZM83.29 57.947l8.791-5.145c-9.397-20.159-16.578-29.644-33.287-42.788l-9.122 5.274c14.025 9.427 26.25 25.44 33.618 42.659Z"/></g><defs><clipPath id="a"><path fill="#fff" d="M0 0h107v124H0z"/></clipPath></defs></svg>
